!! 00000] TT[WS
!!!OTL: Tongyang xifu huo bucheng
!!!ARE: Asia, China,ÿShanxi Hequ
!! Ethnic Group: Han
!! WI, 41 (2)
!!!SCT: J0045
!!!YEM: Copyright 1995, estate of Helmut Schaffrath.
**kern
*ICvox
*Ivox
*M2/4
*k[f#]
*G:
{8dd
16cc#
16dd
4ee
=1
8ee
8aa
8gg
8ee
=2
8dd
8cc#
8dd
8gg
=3
2ee}
=4
{8dd
16cc#
16dd
4ee
=5
8ee
8aa
8gg
8ee
=6
8dd
8cc#
8dd
8ee
=7
2dd}
==
!!!AGN: Shange, Shanqu. Aisu
!!!ONB: ESAC (Essen Associative Code) Database: CHINA
!!!AMT: simple duple
!!!AIN: vox
!!!EED: Helmut Schaffrath
!!!EEV: 1.0
*-
